packages/kaspersky-hexa-ui-icons/src/iconsSVGs/64x42/FlagAl.svg

<svg xmlns="http://www.w3.org/2000/svg" width="64" height="42" fill="none" viewBox="0 0 64 42"><g clip-path="url(#a)"><rect width="64" height="42" fill="#fff" rx="5"/><path fill="#ee343c" d="M0-1.8571h64v45.7143H0z"/><path fill="#262626" fill-rule="evenodd" d="M27.8153 7.6722a.667.667 0 0 0-.8412-.0833l-3.1608 2.1072c-.4259.284-.3862.9221.0717 1.151l4.6992 2.3496a.667.667 0 0 1 .3685.5963v1.969a.6667.6667 0 0 1-.6667.6666h-2.2236a.67.67 0 0 1-.2981-.0704l-5.5247-2.7623a.667.667 0 0 0-.7695.1249l-2.0539 2.0538c-.3217.3217-.2337.8642.1733 1.0677l4.2404 2.1202c.4579.2289.4976.867.0717 1.151l-2.2764 1.5176c-.4942.3294-.3434 1.0919.239 1.2084l4.5788.9158c.565.113.7302.8412.2692 1.187l-3.3024 2.4768c-.5125.3844-.2406 1.2.4 1.2h.9656a.67.67 0 0 0 .1617-.0199l4.3427-1.0857c.5911-.1478 1.0544.5096.7164 1.0166l-1.4002 2.1002c-.2953.443.0223 1.0364.5547 1.0364h2.8453a.667.667 0 0 1 .6324.4559l.7394 2.2182c.2026.6078 1.0624.6078 1.265 0l.7394-2.2182a.667.667 0 0 1 .6324-.4559h2.8453c.5324 0 .85-.5934.5547-1.0364l-1.4002-2.1002c-.338-.507.1253-1.1644.7164-1.0166l4.3427 1.0857a.67.67 0 0 0 .1617.0199h.9656c.6407 0 .9125-.8156.4-1.2l-3.3024-2.4768c-.461-.3458-.2958-1.074.2692-1.187l4.5788-.9158c.5824-.1165.7332-.879.239-1.2084l-2.2764-1.5176c-.4259-.284-.3862-.9221.0717-1.151l4.2404-2.1202c.407-.2035.495-.746.1733-1.0677l-2.0539-2.0538a.667.667 0 0 0-.7695-.1249l-5.5247 2.7623a.67.67 0 0 1-.2981.0704h-2.2236a.6667.6667 0 0 1-.6667-.6666v-1.969c0-.2525.142-.483.3678-.5959l4.7006-2.3503c.4579-.2289.4969-.8667.071-1.1507L37.0265 7.589a.667.667 0 0 0-.8412.0833l-3.7136 3.7136a.6667.6667 0 0 1-.9428 0z" clip-rule="evenodd"/></g><defs><clipPath id="a"><rect width="64" height="42" fill="#fff" rx="5"/></clipPath></defs></svg>

<svg width="64" height="42" viewBox="0 0 64 42" fill="none" xmlns="http://www.w3.org/2000/svg">
<g clip-path="url(#clip0_37941_2178)">
<rect width="64" height="42" rx="5" fill="white"/>
<rect y="-1.85712" width="64" height="45.7143" fill="#EE343C"/>
<path fill-rule="evenodd" clip-rule="evenodd" d="M27.8153 7.67223C27.5906 7.44752 27.2385 7.41265 26.9741 7.58893L23.8133 9.69615C23.3874 9.98009 23.4271 10.6182 23.885 10.8471L28.5842 13.1967C28.81 13.3097 28.9527 13.5405 28.9527 13.793V15.762C28.9527 16.1301 28.6542 16.4286 28.286 16.4286H26.0624C25.9589 16.4286 25.8569 16.4045 25.7643 16.3582L20.2396 13.5959C19.9829 13.4676 19.673 13.5179 19.4701 13.7208L17.4162 15.7746C17.0945 16.0963 17.1825 16.6388 17.5895 16.8423L21.8299 18.9625C22.2878 19.1914 22.3275 19.8295 21.9016 20.1135L19.6252 21.6311C19.131 21.9605 19.2818 22.723 19.8642 22.8395L24.443 23.7553C25.008 23.8683 25.1732 24.5965 24.7122 24.9423L21.4098 27.4191C20.8973 27.8035 21.1692 28.6191 21.8098 28.6191H22.7754C22.8299 28.6191 22.8842 28.6124 22.9371 28.5992L27.2798 27.5135C27.8709 27.3657 28.3342 28.0231 27.9962 28.5301L26.596 30.6303C26.3007 31.0733 26.6183 31.6667 27.1507 31.6667H29.996C30.2829 31.6667 30.5377 31.8503 30.6284 32.1226L31.3678 34.3408C31.5704 34.9486 32.4302 34.9486 32.6328 34.3408L33.3722 32.1226C33.4629 31.8503 33.7177 31.6667 34.0046 31.6667H36.8499C37.3823 31.6667 37.6999 31.0733 37.4046 30.6303L36.0044 28.5301C35.6664 28.0231 36.1297 27.3657 36.7208 27.5135L41.0635 28.5992C41.1164 28.6124 41.1707 28.6191 41.2252 28.6191H42.1908C42.8315 28.6191 43.1033 27.8035 42.5908 27.4191L39.2884 24.9423C38.8274 24.5965 38.9926 23.8683 39.5576 23.7553L44.1364 22.8395C44.7188 22.723 44.8696 21.9605 44.3754 21.6311L42.099 20.1135C41.6731 19.8295 41.7128 19.1914 42.1707 18.9625L46.4111 16.8423C46.8181 16.6388 46.9061 16.0963 46.5844 15.7746L44.5305 13.7208C44.3276 13.5179 44.0177 13.4676 43.761 13.5959L38.2363 16.3582C38.1437 16.4045 38.0417 16.4286 37.9382 16.4286H35.7146C35.3464 16.4286 35.0479 16.1301 35.0479 15.762V13.793C35.0479 13.5405 35.1899 13.31 35.4157 13.1971C36.8217 12.4941 38.888 11.461 40.1163 10.8468C40.5742 10.6179 40.6132 9.98009 40.1873 9.69615L37.0265 7.58893C36.7621 7.41265 36.41 7.44752 36.1853 7.67223L32.4717 11.3858C32.2114 11.6461 31.7892 11.6461 31.5289 11.3858L27.8153 7.67223Z" fill="#262626"/>
</g>
<defs>
<clipPath id="clip0_37941_2178">
<rect width="64" height="42" rx="5" fill="white"/>
</clipPath>
</defs>
</svg>
